X:90
T:Green Gown - Parsons
%%VWML:SBG-1-2-21-0
F:http://www.vwml.org/record/SBG/1/2/21
Z:Original Sibelius transcriptions by M. & S. Graebe
L:1/4
M:4/4
I:linebreak $
K:D
V:1 treble nm="P1"
V:2 treble 
V:1
 A | D2 E F/G/ | A3/2 B/ =c A | A3/2 F/ D D | D3 A | A2 d c | B3/2 A/ F D | A3/2 B/ =c B |$ A3 A | %9
 A B/c/ d d | c B A B/A/ | G A A/B/ c |$ d3 d | B c A F | G3/2 B/ =c B | A F D E | !fermata!D3 x | %17
V:2
 x | x4 | x4 | x4 | x4 | x4 | x4 | x4 |$ x4 | x4 | A G F x | x4 |$ x4 | x4 | A3/2 A/ B B | x4 | %16
 x4 | %17






